assets/images/Invite/tent.svg

<svg width="47" height="37" viewBox="0 0 47 37" fill="none" xmlns="http://www.w3.org/2000/svg">
<path d="M34.4267 0V4.81619L46.49 34.6003V36.0199H0V34.6003L12.0633 4.81628V0H14.2792V3.92416H32.2108V0H34.4267ZM12.0633 10.7189L2.7132 33.8041H12.0633V10.7189ZM14.2792 10.7189V33.8041H23.6293L14.2792 10.7189ZM32.5721 6.14003H14.8154L26.02 33.804H43.7767L32.5721 6.14003Z" fill="#2F70B6"/>
</svg>

<svg xmlns="http://www.w3.org/2000/svg" width="47" height="37" fill="none" viewBox="0 0 47 37"><path fill="#2F70B6" d="M34.427 0v4.816L46.49 34.6v1.42H0V34.6L12.063 4.816V0h2.216v3.924h17.932V0h2.216zM12.063 10.719l-9.35 23.085h9.35V10.72zm2.216 0v23.085h9.35L14.28 10.72zM32.572 6.14H14.815L26.02 33.804h17.757L32.572 6.14z"/></svg>
